X: 680
T: Planxty Toby Peyton
C:O'Carolan
B:O'Neill's 680
Z: 1997 by John Chambers <jc@trillian.mit.edu>
N:"Lively"
N:"3rd Setting"
N:collected by J.O'Neill.
M:6/8
L:1/8
K:Gm
c>AG GAG | FD=E F2d | c>AG GAc | d=eg f2c |
| d>gg .g^f/g/a | .g(=e/^f/g) .=f(d/=e/f) | (=efed).c (d_edc).A | (cdcBAG) ^FDC |
| D>GG GAG | ^FGA (A<=f)d | cAG ^FDF | G3 G2 :|
|: E \
| F>ED CB,A, | G,>GG G,>GG | Gcc (c/d/c/B/A/)G/ | Add d2=e |
| fcA fcA | Ggg g^fg | (a/b/a/g/^f/a/) (g/a/g/=f/=e/g/) | (f/g/f/=e/d/c/) (d/_e/d/c/B/A/) |
| fAG ^FGA | fAG ^FGA | dGG ^FDF | G3 G2 :|


